symbols/web/delete/materialsymbolssharp/delete_wght100gradN25fill1_40px.svg

<svg xmlns="http://www.w3.org/2000/svg" height="40" width="40"><path d="M10.542 32.75v-23H8.875v-.917h6.042V7.75h10.208v1.042h6v.958h-1.667v23Zm6.291-4.333h.959V13.083h-.959Zm5.375 0h.959V13.083h-.959Z"/></svg>

<svg xmlns="http://www.w3.org/2000/svg" height="40" width="40"><path d="M10.542 32.75V9.75H8.875V8.833H14.917V7.75H25.125V8.792H31.125V9.75H29.458V32.75ZM16.833 28.417H17.792V13.083H16.833ZM22.208 28.417H23.167V13.083H22.208Z"/></svg>
